Catalina-light/actions/22/view-calendar-timeline.svg

<svg xmlns="http://www.w3.org/2000/svg" viewBox="0 0 22 22">
  <defs id="defs3051">
    <style type="text/css" id="current-color-scheme">
      .ColorScheme-Text {
        color:#4d4d4d
      }
      </style>
  </defs>
 <path 
     style="fill:currentColor;fill-opacity:1;stroke:none"      
	 class="ColorScheme-Text"
        d="M 4 3 C 3.4459836 3 3 3.4459836 3 4 L 3 18 C 3 18.554016 3.4459836 19 4 19 L 18 19 C 18.554016 19 19 18.554016 19 18 L 19 4 C 19 3.4459836 18.554016 3 18 3 L 4 3 z M 8.0136719 6.1308594 L 8.0039062 7.84375 L 12.705078 9.1523438 L 7.9902344 10.412109 L 7.9804688 12.123047 L 5 9.1113281 L 8.0136719 6.1308594 z M 13.986328 9.8769531 L 17 12.857422 L 14.019531 15.869141 L 14.009766 14.15625 L 9.2949219 12.898438 L 13.996094 11.587891 L 13.986328 9.8769531 z "
     />
</svg>

<svg viewBox="0 0 22 22" xmlns="http://www.w3.org/2000/svg">
<defs>
<style id="current-color-scheme" type="text/css">.ColorScheme-Text {
        color:#363636
      }</style>
</defs>
<path class="ColorScheme-Text" d="m4 3c-0.55402 0-1 0.44598-1 1v14c0 0.55402 0.44598 1 1 1h14c0.55402 0 1-0.44598 1-1v-14c0-0.55402-0.44598-1-1-1h-14zm4.0137 3.1309-0.0097657 1.7129 4.7012 1.3086-4.7148 1.2598-0.0097656 1.7109-2.9805-3.0117 3.0137-2.9805zm5.9727 3.7461 3.0137 2.9805-2.9805 3.0117-0.009765-1.7129-4.7148-1.2578 4.7012-1.3105-0.009766-1.7109z" fill="#363636"/>
</svg>
